svgs/sharp-regular/gift.svg

<svg xmlns="http://www.w3.org/2000/svg" viewBox="0 0 512 512"><!--! Font Awesome Pro 6.6.0 by @fontawesome - https://fontawesome.com License - https://fontawesome.com/license (Commercial License) Copyright 2024 Fonticons, Inc. --><path d="M231.9 44.4C215.7 16.9 186.1 0 154.2 0L152 0C103.4 0 64 39.4 64 88c0 14.4 3.5 28 9.6 40L48 128 0 128l0 48 0 64 0 48 32 0 0 176 0 48 48 0 352 0 48 0 0-48 0-176 32 0 0-48 0-64 0-48-48 0-25.6 0c6.1-12 9.6-25.6 9.6-40c0-48.6-39.4-88-88-88l-2.2 0c-31.9 0-61.5 16.9-77.7 44.4L256 85.5l-24.1-41zM464 176l0 64-32 0-144 0 0-64 72 0 104 0zm-240 0l0 64L80 240l-32 0 0-64 104 0 72 0zm0 112l0 176L80 464l0-176 144 0zm64 176l0-176 144 0 0 176-144 0zm72-336l-72 0-1.3 0 34.8-59.2C329.1 55.9 342.9 48 357.8 48l2.2 0c22.1 0 40 17.9 40 40s-17.9 40-40 40zm-136 0l-72 0c-22.1 0-40-17.9-40-40s17.9-40 40-40l2.2 0c14.9 0 28.8 7.9 36.3 20.8L225.3 128l-1.3 0z"/></svg>

<svg xmlns="http://www.w3.org/2000/svg" viewBox="0 0 512 512"><!--! Font Awesome Pro 6.4.2 by @fontawesome - https://fontawesome.com License - https://fontawesome.com/license (Commercial License) Copyright 2023 Fonticons, Inc. --><path d="M231.9 44.4C215.7 16.9 186.1 0 154.2 0H152C103.4 0 64 39.4 64 88c0 14.4 3.5 28 9.6 40H48 0v48 64 48H32V464v48H80 432h48V464 288h32V240 176 128H464 438.4c6.1-12 9.6-25.6 9.6-40c0-48.6-39.4-88-88-88h-2.2c-31.9 0-61.5 16.9-77.7 44.4L256 85.5l-24.1-41zM464 176v64H432 288V176h72H464zm-240 0v64H80 48V176H152h72zm0 112V464H80V288H224zm64 176V288H432V464H288zm72-336H288h-1.3l34.8-59.2C329.1 55.9 342.9 48 357.8 48H360c22.1 0 40 17.9 40 40s-17.9 40-40 40zm-136 0H152c-22.1 0-40-17.9-40-40s17.9-40 40-40h2.2c14.9 0 28.8 7.9 36.3 20.8L225.3 128H224z"/></svg>
